assets/img/shapes/blurs/blur-1.svg

<svg viewBox="0 0 723 569" fill="none" xmlns="http://www.w3.org/2000/svg">
  <path d="M703.969 241.602L703.963 241.599C716.081 262.97 723 287.677 723 314C723 382.917 675.575 440.757 611.58 456.665L246.7 556.937C226.465 564.729 204.481 569 181.5 569C81.2603 569 0 487.74 0 387.5C0 353.244 9.49023 321.204 25.985 293.867L25.9688 293.875L141.512 77.5476C162.753 33.3052 207.123 2.2726 258.951 0.119583L258.959 0H264.719H390.999H508.5H509.999L510.002 0.00999319C551.85 0.567328 588.083 24.388 606.358 59.1292L606.359 59.125L703.969 241.602Z" fill="currentColor"/>
</svg>

<svg viewBox="0 0 723 569" fill="none" xmlns="http://www.w3.org/2000/svg"><path d="M703.969 241.602l-.006-.003C716.081 262.97 723 287.677 723 314c0 68.917-47.425 126.757-111.42 142.665L246.7 556.937C226.465 564.729 204.481 569 181.5 569 81.26 569 0 487.74 0 387.5c0-34.256 9.49-66.296 25.985-93.633l-.016.008L141.512 77.548C162.753 33.305 207.123 2.273 258.951.12l.008-.12h251.04l.003.01c41.848.557 78.081 24.378 96.356 59.12l.001-.005 97.61 182.477z" fill="currentColor"/></svg>
